images/ic_check.svg

<svg width="16" height="16" viewBox="0 0 16 16" fill="none" xmlns="http://www.w3.org/2000/svg">
<path d="M8 0C3.58892 0 0 3.58862 0 8C0 12.4114 3.58892 16 8 16C12.4111 16 16 12.4114 16 8C16 3.58862 12.4111 0 8 0ZM12.46 5.332L7.53692 10.8705C7.41569 11.0068 7.24677 11.0769 7.07662 11.0769C6.94154 11.0769 6.80585 11.0326 6.69231 10.9422L3.61538 8.48062C3.35015 8.26862 3.30708 7.88123 3.51938 7.61569C3.73138 7.35015 4.11908 7.30708 4.38431 7.51938L7.00492 9.61569L11.54 4.51385C11.7652 4.25969 12.1548 4.23692 12.4086 4.46277C12.6628 4.68892 12.6858 5.07785 12.46 5.332Z" fill="#E5E5E5"/>
</svg>

<svg xmlns="http://www.w3.org/2000/svg" fill="none" viewBox="0 0 16 16"><path d="M8 0a8.01 8.01 0 0 0-8 8 8.01 8.01 0 0 0 8 8 8.01 8.01 0 0 0 8-8 8.01 8.01 0 0 0-8-8zm4.46 5.332l-4.923 5.54c-.12.136-.3.206-.46.206-.135 0-.27-.044-.384-.135L3.615 8.48c-.265-.212-.308-.6-.096-.865s.6-.31.865-.096l2.62 2.096 4.535-5.102c.225-.254.615-.277.87-.05s.277.615.05.87z" fill="#e5e5e5"/></svg>
